lib/brands/icons/graphql.svg

<svg xmlns="http://www.w3.org/2000/svg" fill="none" aria-hidden="true" viewBox="0 0 48 48"><g id="graphql-Icon"><path id="Vector" fill="#E535AB" fill-rule="evenodd" d="M27.0756 10.1255L34.478 14.3994C34.6865 14.1787 34.9299 13.9837 35.2061 13.8233C36.7414 12.9408 38.6995 13.4648 39.5912 15C40.4738 16.5352 39.9498 18.4934 38.4145 19.3851C38.1404 19.5426 37.8526 19.6554 37.5596 19.7255V28.2767C37.8494 28.347 38.1341 28.459 38.4053 28.6149C39.9497 29.5066 40.4738 31.4648 39.582 33C38.6995 34.5352 36.7322 35.0592 35.1969 34.1767C34.8913 34.001 34.6257 33.7823 34.4034 33.5326L27.0461 37.7804C27.1513 38.0982 27.2082 38.4382 27.2082 38.7916C27.2082 40.5567 25.7741 42 23.9998 42C22.2255 42 20.7914 40.5659 20.7914 38.7916C20.7914 38.4762 20.8367 38.1716 20.9212 37.8839L13.5208 33.6111C13.3146 33.8275 13.0745 34.0188 12.8027 34.1767C11.2582 35.0592 9.30011 34.5352 8.41758 33C7.53504 31.4648 8.05905 29.5066 9.59429 28.6149C9.86573 28.4589 10.1504 28.3468 10.44 28.2765V19.7255C10.147 19.6554 9.85918 19.5426 9.58509 19.3851C8.04985 18.5026 7.52585 16.5352 8.40838 15C9.29092 13.4648 11.2582 12.9408 12.7935 13.8233C13.0682 13.9828 13.3105 14.1765 13.5182 14.3958L20.9226 10.1208C20.8372 9.83167 20.7914 9.52546 20.7914 9.20838C20.7914 7.43412 22.2255 6 23.9998 6C25.7741 6 27.2082 7.43412 27.2082 9.20838C27.2082 9.52719 27.1619 9.83503 27.0756 10.1255ZM26.3044 11.4423L33.7244 15.7264C33.495 16.532 33.5792 17.4252 34.0294 18.2084C34.4811 18.9941 35.2169 19.5149 36.0335 19.7179V28.2798C35.9919 28.29 35.9505 28.3011 35.9093 28.3129L26.2182 11.5279C26.2475 11.4999 26.2762 11.4714 26.3044 11.4423ZM21.7834 11.5299L12.0925 28.3146C12.0506 28.3024 12.0084 28.2911 11.9661 28.2806V19.7179C12.7827 19.5149 13.5185 18.9941 13.9702 18.2084C14.4213 17.4237 14.5049 16.5285 14.2738 15.7217L21.6918 11.4388C21.7217 11.4697 21.7523 11.5001 21.7834 11.5299ZM24.8963 12.2903L34.585 29.0712C34.3682 29.2779 34.1771 29.5188 34.0202 29.7916C33.8643 30.0628 33.7523 30.3476 33.682 30.6374H14.3178C14.2475 30.3477 14.1354 30.0631 13.9794 29.7916C13.8219 29.5205 13.6312 29.281 13.4155 29.0751L23.106 12.291C23.3897 12.3729 23.6895 12.4168 23.9998 12.4168C24.3111 12.4168 24.6118 12.3726 24.8963 12.2903ZM26.3725 36.6301L33.7444 32.3739C33.7223 32.3044 33.7025 32.2342 33.6851 32.1634H14.3137C14.3034 32.205 14.2923 32.2464 14.2804 32.2876L21.6884 36.5647C22.2717 35.9594 23.0911 35.5832 23.9998 35.5832C24.9408 35.5832 25.7861 35.9866 26.3725 36.6301Z" clip-rule="evenodd"/></g></svg>

<svg xmlns="http://www.w3.org/2000/svg" fill="none" aria-hidden="true" viewBox="0 0 48 48"><path fill="#E535AB" fill-rule="evenodd" d="m27.076 10.126 7.402 4.273c.209-.22.452-.415.728-.576A3.216 3.216 0 0 1 39.592 15a3.216 3.216 0 0 1-2.032 4.726v8.55c.29.071.574.183.846.339A3.2 3.2 0 0 1 39.582 33a3.213 3.213 0 0 1-5.178.533l-7.358 4.247A3.212 3.212 0 0 1 24 42a3.205 3.205 0 0 1-3.078-4.116L13.52 33.61A3.211 3.211 0 0 1 8.418 33a3.215 3.215 0 0 1 2.022-4.724v-8.55A3.213 3.213 0 0 1 8.408 15a3.213 3.213 0 0 1 5.11-.604l7.405-4.275A3.205 3.205 0 0 1 24 6a3.205 3.205 0 0 1 3.076 4.125Zm-.771 1.316 7.42 4.284a3.204 3.204 0 0 0 2.309 3.992v8.562c-.042.01-.083.021-.124.033l-9.691-16.785.086-.086Zm-4.521.088-9.691 16.785a3.224 3.224 0 0 0-.127-.034v-8.563a3.204 3.204 0 0 0 2.308-3.996l7.418-4.283c.03.03.06.061.092.09Zm3.113.76 9.688 16.781a3.214 3.214 0 0 0-.903 1.566H14.318a3.217 3.217 0 0 0-.902-1.562l9.69-16.784a3.217 3.217 0 0 0 1.79 0Zm1.476 24.34 7.372-4.256a3.206 3.206 0 0 1-.06-.21H14.314l-.033.124 7.408 4.277A3.199 3.199 0 0 1 24 35.583a3.2 3.2 0 0 1 2.373 1.047Z" clip-rule="evenodd"/></svg>
